images/logo_slack_desktop.svg

<svg width="134" height="64" fill="none" xmlns="http://www.w3.org/2000/svg"><g clip-path="url(#a)"><path fill-rule="evenodd" clip-rule="evenodd" d="M21.5815 18.5129c0-2.2707 1.7476-4.0986 3.9184-4.0986s3.9184 1.8279 3.9184 4.0986v10.0885c0 2.2707-1.7476 4.0986-3.9184 4.0986s-3.9184-1.8279-3.9184-4.0986V18.5129Zm51.5093 27.0055-3.587-.0066-.0014.0002c-.3775-.0131-.5683-.1879-.61-.5473-.0417-.3595-.1714-19.3486.0215-27.5851.0007-.1461.1052-.272.2508-.3021.7896-.201 3.2529-.2288 4.1173-.1144.1911.0244.3124.1274.3239.4052.1363 3.1937.2295 23.4306.0135 27.6812-.0029.0653-.0189.1294-.0471.1885-.0282.059-.0681.1118-.1171.1551-.1001.0884-.2311.1334-.3644.1253Zm-14.747-20.231c-5.0198 0-7.779 2.5976-7.779 6.319l.0305-.003c0 3.8602 3.1415 5.1246 7.0476 5.8482 2.4303.454 3.9679 1.0799 3.9893 2.1532.0251 1.2188-1.1485 1.9407-3.0883 1.9864l-.5035-.0032c-2.1709-.0719-4.0259-1.1843-5.1629-1.8787-.3243-.1993-.9508-.1489-1.1885.1698-.4274.4903-.9692 1.4245-1.2918 2.2382-.2808.6305.2445 1.1566.291 1.1957 1.3795 1.1714 3.9523 2.3738 7.5794 2.4456 5.4852.0963 8.3109-3.0419 8.3109-6.5133 0-4.0873-3.055-5.2521-7.0975-5.9331-2.1727-.3648-3.9646-.8221-3.9314-2.0898.0039-.1897.0451-.3805.1215-.5717.379-.9621 1.4494-1.4 2.7326-1.4278.3788-.0081.7527.0113 1.1102.0489 1.3822.1447 2.8996.902 3.8744 1.3886l.1149.0573c.2659.134.7862.1816.9906-.1894l1.1055-2.2724c.168-.3876.0277-.838-.3326-1.0668-1.3579-.9411-3.8645-1.9017-6.9229-1.9017Zm22.3771 14.5051c.0732-2.1156 2.598-2.8556 5.3523-2.8915l-.0004.0017c.7379.0293 1.1718.1045 1.757.3461.118.0477.3855.3021.3888.433.0134.6257-.0199 2.0876-.2526 2.4797-.6267 1.054-2.0496 1.8495-3.9145 2.0258-1.9461.1078-3.3306-.7172-3.3306-2.3948Zm4.1003-14.2139c-4.0892-.0931-6.624 1.6695-7.9122 2.8017l-.0063-.0324c-.1662.147-.2961.3808-.2045.6617.0916.2808 1.2816 2.0358 1.7536 2.6366.0966.1225.3939.2025.5851.0932.0848-.0487.1822-.106.2903-.1696.9261-.5445 2.6456-1.5556 4.1013-1.6682.4229-.03.8477-.0189 1.2683.0327 2.0444.2499 3.0167 1.1729 3.2662 2.3197.0995.451.1228 1.4001.1162 1.8982-.0032.1504-.2244.2123-.3324.17-1.6922-.6617-3.9293-.9198-5.9141-.629-3.0984.4543-5.919 2.3834-5.929 6.2926-.0098 3.8178 3.3143 5.7454 6.6488 5.7454 2.1943 0 4.2585-.6535 5.5184-1.9605.0501-.0326.2445-.0392.2494.1633l.0282 1.0096c.0067.2432.0617.4735.5353.4963l3.8664-.0082c.0579.0102.1175.0065.1737-.0109.0562-.0175.1074-.0481.1494-.0893.0844-.0833.122-.2022.1006-.318.0462-1.6958.2256-8.5043.1175-10.9451-.2641-5.9053-3.1014-8.3803-8.4702-8.4898Zm20.3198-.0346c-6.2779.0425-10.144 4.6426-10.1108 10.0957l-.0149-.0196c.0317 5.4725 3.4125 10.1837 10.2277 10.1349 3.254-.0181 5.714-1.3495 6.988-2.9338.111-.1373.34-.4804.033-.8302-.471-.6156-1.317-1.5305-1.907-2.1235-.301-.232-.573-.3429-.836-.1176-.823.7434-2.382 1.6515-3.989 1.6123-3.092-.0703-5.229-2.042-5.253-5.6359-.026-3.7428 2.225-5.7783 5.243-5.7783 1.664 0 3.356.7125 4.245 1.2957.045.0292.089.0597.132.0897.264.1846.5.3491.719.0738.667-.871 1.258-1.798 1.765-2.7707.072-.1944.122-.3561.022-.5489-.502-.8234-3.348-2.5679-7.264-2.5436Zm27.185 19.2471c-1.048.2351-4.463.6992-4.782.7222l-.011.0286c-.16.005-.37-.0049-.549-.2565l-2.382-3.3828c-.49-.7139-.995-1.4599-1.46-2.147l-.002-.0037-.002-.0034-.001-.0014-.001-.0002c-.762-1.1267-1.416-2.0934-1.72-2.4967-.1-.1338-.256-.1405-.356-.0458l-1.732 1.7842c-.083.0686-.133.3265-.133.3265l-.073 5.8159s-.06.3381-.549.3381c-.994.018-3.12.0211-3.979-.0277-.215-.0153-.383-.1899-.386-.4019-.119-3.0322-.402-24.7018-.203-27.6536.051-.2426.246-.43.494-.4738l3.915.0083c.168.0078.467.1923.473.4375l.161 15.6907c.002.351.145.4052.394.1603l7.496-7.3107c.343-.3266.792-.3544 1.164-.2776.883.1847 2.435.536 3.396.8168.496.1456.848.415.263 1.0358l-6.493 6.3974c-.133.1306-.139.2938-.016.4574l3.548 4.4711 3.735 5.5053c.144.2139.051.4279-.209.4867ZM11.1326 39.4128c0-2.2707 1.7476-4.0986 3.9183-4.0986 2.1708 0 3.9184 1.8279 3.9184 4.0986v10.0885c0 2.2706-1.7476 4.0986-3.9184 4.0986-2.1707 0-3.9183-1.828-3.9183-4.0986V39.4128Zm10.4489-.1802c0 2.1708 1.8281 3.9183 4.0987 3.9183h10.0887c2.2707 0 4.0986-1.7475 4.0986-3.9183s-1.828-3.9184-4.0986-3.9184H25.6802c-2.2707 0-4.0987 1.7476-4.0987 3.9184ZM.683594 28.7826c0 2.1708 1.827916 3.9184 4.098606 3.9184h10.0885c2.2707 0 4.0986-1.7476 4.0986-3.9184s-1.8279-3.9183-4.0986-3.9183H4.7822c-2.27069 0-4.098606 1.7475-4.098606 3.9183ZM21.5815 49.6789c0 2.1707 1.7476 3.9183 3.9184 3.9183s3.9184-1.7476 3.9184-3.9183c0-2.1708-1.7476-3.9184-3.9184-3.9184h-3.9184v3.9184Zm10.449-16.9779h3.9184c2.1708 0 3.9184-1.7476 3.9184-3.9184s-1.7476-3.9183-3.9184-3.9183-3.9184 1.7475-3.9184 3.9183v3.9184ZM4.60196 35.3142h3.91837v3.9184c0 2.1708-1.74759 3.9183-3.91837 3.9183-2.17077 0-3.918366-1.7475-3.918366-3.9183s1.747596-3.9184 3.918366-3.9184ZM18.9693 22.251v-3.9183c0-2.1708-1.7476-3.9184-3.9183-3.9184-2.1708 0-3.9184 1.7476-3.9184 3.9184 0 2.1707 1.7476 3.9183 3.9184 3.9183h3.9183Z" fill="#fff"/></g><defs><clipPath id="a"><path fill="#fff" transform="translate(.0305176 .653076)" d="M0 0h133.224v62.6939H0z"/></clipPath></defs></svg>

<svg width="134" height="64" viewBox="0 0 134 64" fill="none" xmlns="http://www.w3.org/2000/svg">
<g clip-path="url(#clip0_1_40)">
<path fill-rule="evenodd" clip-rule="evenodd" d="M21.5815 18.5129C21.5815 16.2422 23.3291 14.4143 25.4999 14.4143C27.6707 14.4143 29.4183 16.2422 29.4183 18.5129V28.6014C29.4183 30.8721 27.6707 32.7 25.4999 32.7C23.3291 32.7 21.5815 30.8721 21.5815 28.6014V18.5129ZM73.0908 45.5184L69.5038 45.5118L69.5024 45.512C69.1249 45.4989 68.9341 45.3241 68.8924 44.9647C68.8507 44.6052 68.721 25.6161 68.9139 17.3796C68.9146 17.2335 69.0191 17.1076 69.1647 17.0775C69.9543 16.8765 72.4176 16.8487 73.282 16.9631C73.4731 16.9875 73.5944 17.0905 73.6059 17.3683C73.7422 20.562 73.8354 40.7989 73.6194 45.0495C73.6165 45.1148 73.6005 45.1789 73.5723 45.238C73.5441 45.297 73.5042 45.3498 73.4552 45.3931C73.3551 45.4815 73.2241 45.5265 73.0908 45.5184ZM58.3438 25.2874C53.324 25.2874 50.5648 27.885 50.5648 31.6064L50.5953 31.6034C50.5953 35.4636 53.7368 36.728 57.6429 37.4516C60.0732 37.9056 61.6108 38.5315 61.6322 39.6048C61.6573 40.8236 60.4837 41.5455 58.5439 41.5912L58.0404 41.588C55.8695 41.5161 54.0145 40.4037 52.8775 39.7093C52.5532 39.51 51.9267 39.5604 51.689 39.8791C51.2616 40.3694 50.7198 41.3036 50.3972 42.1173C50.1164 42.7478 50.6417 43.2739 50.6882 43.313C52.0677 44.4844 54.6405 45.6868 58.2676 45.7586C63.7528 45.8549 66.5785 42.7167 66.5785 39.2453C66.5785 35.158 63.5235 33.9932 59.481 33.3122C57.3083 32.9474 55.5164 32.4901 55.5496 31.2224C55.5535 31.0327 55.5947 30.8419 55.6711 30.6507C56.0501 29.6886 57.1205 29.2507 58.4037 29.2229C58.7825 29.2148 59.1564 29.2342 59.5139 29.2718C60.8961 29.4165 62.4135 30.1738 63.3883 30.6604L63.5032 30.7177C63.7691 30.8517 64.2894 30.8993 64.4938 30.5283L65.5993 28.2559C65.7673 27.8683 65.627 27.4179 65.2667 27.1891C63.9088 26.248 61.4022 25.2874 58.3438 25.2874ZM80.7209 39.7925C80.7941 37.6769 83.3189 36.9369 86.0732 36.901L86.0728 36.9027C86.8107 36.932 87.2446 37.0072 87.8298 37.2488C87.9478 37.2965 88.2153 37.5509 88.2186 37.6818C88.232 38.3075 88.1987 39.7694 87.966 40.1615C87.3393 41.2155 85.9164 42.011 84.0515 42.1873C82.1054 42.2951 80.7209 41.4701 80.7209 39.7925ZM84.8212 25.5786C80.732 25.4855 78.1972 27.2481 76.909 28.3803L76.9027 28.3479C76.7365 28.4949 76.6066 28.7287 76.6982 29.0096C76.7898 29.2904 77.9798 31.0454 78.4518 31.6462C78.5484 31.7687 78.8457 31.8487 79.0369 31.7394C79.1217 31.6907 79.2191 31.6334 79.3272 31.5698C80.2533 31.0253 81.9728 30.0142 83.4285 29.9016C83.8514 29.8716 84.2762 29.8827 84.6968 29.9343C86.7412 30.1842 87.7135 31.1072 87.963 32.254C88.0625 32.705 88.0858 33.6541 88.0792 34.1522C88.076 34.3026 87.8548 34.3645 87.7468 34.3222C86.0546 33.6605 83.8175 33.4024 81.8327 33.6932C78.7343 34.1475 75.9137 36.0766 75.9037 39.9858C75.8939 43.8036 79.218 45.7312 82.5525 45.7312C84.7468 45.7312 86.811 45.0777 88.0709 43.7707C88.121 43.7381 88.3154 43.7315 88.3203 43.934L88.3485 44.9436C88.3552 45.1868 88.4102 45.4171 88.8838 45.4399L92.7502 45.4317C92.8081 45.4419 92.8677 45.4382 92.9239 45.4208C92.9801 45.4033 93.0313 45.3727 93.0733 45.3315C93.1577 45.2482 93.1953 45.1293 93.1739 45.0135C93.2201 43.3177 93.3995 36.5092 93.2914 34.0684C93.0273 28.1631 90.19 25.6881 84.8212 25.5786ZM105.141 25.544C98.8631 25.5865 94.997 30.1866 95.0302 35.6397L95.0153 35.6201C95.047 41.0926 98.4278 45.8038 105.243 45.755C108.497 45.7369 110.957 44.4055 112.231 42.8212C112.342 42.6839 112.571 42.3408 112.264 41.991C111.793 41.3754 110.947 40.4605 110.357 39.8675C110.056 39.6355 109.784 39.5246 109.521 39.7499C108.698 40.4933 107.139 41.4014 105.532 41.3622C102.44 41.2919 100.303 39.3202 100.279 35.7263C100.253 31.9835 102.504 29.948 105.522 29.948C107.186 29.948 108.878 30.6605 109.767 31.2437C109.812 31.2729 109.856 31.3034 109.899 31.3334C110.163 31.518 110.399 31.6825 110.618 31.4072C111.285 30.5362 111.876 29.6092 112.383 28.6365C112.455 28.4421 112.505 28.2804 112.405 28.0876C111.903 27.2642 109.057 25.5197 105.141 25.544ZM132.326 44.7911C131.278 45.0262 127.863 45.4903 127.544 45.5133L127.533 45.5419C127.373 45.5469 127.163 45.537 126.984 45.2854L124.602 41.9026C124.112 41.1887 123.607 40.4427 123.142 39.7556L123.14 39.7519L123.138 39.7485L123.137 39.7471L123.136 39.7469C122.374 38.6202 121.72 37.6535 121.416 37.2502C121.316 37.1164 121.16 37.1097 121.06 37.2044L119.328 38.9886C119.245 39.0572 119.195 39.3151 119.195 39.3151L119.122 45.131C119.122 45.131 119.062 45.4691 118.573 45.4691C117.579 45.4871 115.453 45.4902 114.594 45.4414C114.379 45.4261 114.211 45.2515 114.208 45.0395C114.089 42.0073 113.806 20.3377 114.005 17.3859C114.056 17.1433 114.251 16.9559 114.499 16.9121L118.414 16.9204C118.582 16.9282 118.881 17.1127 118.887 17.3579L119.048 33.0486C119.05 33.3996 119.193 33.4538 119.442 33.2089L126.938 25.8982C127.281 25.5716 127.73 25.5438 128.102 25.6206C128.985 25.8053 130.537 26.1566 131.498 26.4374C131.994 26.583 132.346 26.8524 131.761 27.4732L125.268 33.8706C125.135 34.0012 125.129 34.1644 125.252 34.328L128.8 38.7991L132.535 44.3044C132.679 44.5183 132.586 44.7323 132.326 44.7911ZM11.1326 39.4128C11.1326 37.1421 12.8802 35.3142 15.0509 35.3142C17.2217 35.3142 18.9693 37.1421 18.9693 39.4128V49.5013C18.9693 51.7719 17.2217 53.5999 15.0509 53.5999C12.8802 53.5999 11.1326 51.7719 11.1326 49.5013V39.4128ZM21.5815 39.2326C21.5815 41.4034 23.4096 43.1509 25.6802 43.1509H35.7689C38.0396 43.1509 39.8675 41.4034 39.8675 39.2326C39.8675 37.0618 38.0395 35.3142 35.7689 35.3142H25.6802C23.4095 35.3142 21.5815 37.0618 21.5815 39.2326ZM0.683594 28.7826C0.683594 30.9534 2.51151 32.701 4.7822 32.701H14.8707C17.1414 32.701 18.9693 30.9534 18.9693 28.7826C18.9693 26.6118 17.1414 24.8643 14.8707 24.8643H4.7822C2.51151 24.8643 0.683594 26.6118 0.683594 28.7826ZM21.5815 49.6789C21.5815 51.8496 23.3291 53.5972 25.4999 53.5972C27.6707 53.5972 29.4183 51.8496 29.4183 49.6789C29.4183 47.5081 27.6707 45.7605 25.4999 45.7605H21.5815V49.6789ZM32.0305 32.701H35.9489C38.1197 32.701 39.8673 30.9534 39.8673 28.7826C39.8673 26.6118 38.1197 24.8643 35.9489 24.8643C33.7781 24.8643 32.0305 26.6118 32.0305 28.7826V32.701ZM4.60196 35.3142H8.52033V39.2326C8.52033 41.4034 6.77274 43.1509 4.60196 43.1509C2.43119 43.1509 0.683594 41.4034 0.683594 39.2326C0.683594 37.0618 2.43119 35.3142 4.60196 35.3142ZM18.9693 22.251V18.3327C18.9693 16.1619 17.2217 14.4143 15.051 14.4143C12.8802 14.4143 11.1326 16.1619 11.1326 18.3327C11.1326 20.5034 12.8802 22.251 15.051 22.251H18.9693Z" fill="white"/>
</g>
<defs>
<clipPath id="clip0_1_40">
<rect width="133.224" height="62.6939" fill="white" transform="translate(0.0305176 0.653076)"/>
</clipPath>
</defs>
</svg>
